X: 19169
T: Is Coma Leam Fhin Am Ministear
R: slip jig
M: 9/8
K: Dmajor
|:A|F/G/AA A2 d AFD|F/G/AA ABc d2 f|
F/G/AA A2 d AFD|EFE =cGE G2:|
a|fda fdb afd|fda fdb g2 b|
fda fdb afd|=cc=c' c'ge g2 a|
fda fdb afd|fda fdb g2 b|
agf edc dAF|EFE =cGE G2||

